icons/document-check.svg

<svg xmlns="http://www.w3.org/2000/svg" width="24" height="24" viewBox="0 0 24 24">
  <path d="M12,1 L12,8 C12,8.55228475 12.4477153,9 13,9 L20,9 L20,21 C20,22.1045695 19.1045695,23 18,23 L6,23 C4.8954305,23 4,22.1045695 4,21 L4,3 C4,1.8954305 4.8954305,1 6,1 L12,1 Z M15.1616337,13.2501621 C14.7475097,12.8847586 14.1155778,12.9242544 13.7501742,13.3383784 L13.7501742,13.3383784 L10.9700121,16.488 L10.2498499,15.6717117 L10.1610152,15.5828086 C9.78851489,15.2539073 9.22065875,15.2461999 8.83839043,15.5834955 C8.42426642,15.948899 8.38477067,16.580831 8.75017421,16.994955 L8.75017421,16.994955 L10.2207624,18.6616216 L10.3105198,18.7513955 C10.7177952,19.1104909 11.3507811,19.0805663 11.7204382,18.6616216 L11.7204382,18.6616216 L15.2498499,14.6616216 L15.327,14.5624086 C15.6069605,14.1518544 15.543902,13.5874577 15.1616337,13.2501621 Z M14,1 L20,7 L15,7 C14.4871642,7 14.0644928,6.61395981 14.0067277,6.11662113 L14,6 L14,1 Z"/>
</svg>

<svg xmlns="http://www.w3.org/2000/svg" viewBox="0 0 24 24">
  <path d="M12 1v7a1 1 0 0 0 1 1h7v12a2 2 0 0 1-2 2H6a2 2 0 0 1-2-2V3c0-1.1.9-2 2-2h6zm3.16 12.25a1 1 0 0 0-1.41.09l-2.78 3.15-.72-.82-.09-.09A1 1 0 0 0 8.75 17l1.47 1.67.1.1a1 1 0 0 0 1.4-.1l3.53-4 .08-.1a1 1 0 0 0-.17-1.31zM14 1l6 6h-5a1 1 0 0 1-1-.88V1z"/>
</svg>
